X:772
T:Reel 772
M:4/4
K:Bmin
L:1/8
F>E (3DCB, D>B, (3B,A,B, |C>A, (3A,A,A, C>E (3EDC |B,>B (3B,A,B, F>B, (3B,A,B, |E>A, (3A,A,A, C>A, (3CDE :||2B,>B (3BAB A>B (3BAB |FEDE CDECA,C|B,2 (3B,B,B, B,>D (3DCD |E>A, (3A,A,A, CEEC|B,>A, (3A,A,A, B,>D (3DCD |E>A, (3A,B,C E>C (3CB,C :||2F>B, (3DDD B>D (3CCC |E>A, (3A,B,A, CEDCE2|E>E (3EDE CEDC|B,2A,B, A,B,DE|F2DB, CB,A,C|DA,F,D ECA,B,:||2FEDC B,CDB,CA,|F,>A, (3A,A,E D>A, (3CB,A, B,2|
